assets/images/system/icon/services/hearth-icon.svg

<svg width="70" height="70" viewBox="0 0 70 70" fill="none" xmlns="http://www.w3.org/2000/svg">
<path fill-rule="evenodd" clip-rule="evenodd" d="M63.6592 26.2499H57.575C58.0737 24.8294 58.3392 23.4586 58.3392 22.1374C58.3392 15.3532 53.0367 11.124 46.6025 11.7161C38.7829 12.4365 33.425 22.5369 32.0833 24.7944C30.5463 22.2774 25.4888 12.4336 17.5554 11.6869C11.4013 11.1065 5.83333 15.1315 5.83333 22.1344C5.83333 31.2024 18.5121 42.7961 32.0863 56.0115C35.4696 52.7244 38.7508 49.5715 41.7812 46.5528L44.6104 51.969C40.7663 55.7665 36.5342 59.8032 32.0863 64.1636C14.1079 46.5557 0 34.4078 0 22.1549C0 12.5474 7.18083 6.03736 16.5492 5.83319C22.8579 5.80694 28.5804 8.62444 32.0863 14.4432C35.5192 8.73819 41.2621 5.86236 47.4075 5.86236C56.3442 5.86236 64.1667 12.0311 64.1667 22.1811C64.1667 23.5344 63.9917 24.8878 63.6592 26.2499ZM31.3017 37.9165C30.2925 39.6607 28.4083 40.8332 26.25 40.8332C23.03 40.8332 20.4167 38.2199 20.4167 34.9999C20.4167 31.7799 23.03 29.1665 26.25 29.1665C28.4083 29.1665 30.2925 30.339 31.3017 32.0832H34.8658L40.3492 24.179C40.7575 23.5899 41.4458 23.2603 42.1633 23.3069C42.8779 23.3536 43.5167 23.7765 43.8433 24.4153L50.4642 37.3565L52.8354 33.1274C53.1971 32.4828 53.8767 32.0832 54.6175 32.0832H70V37.9165H56.8371L51.7067 46.3982C51.3217 47.0369 50.6188 47.4132 49.8721 47.3811C49.1283 47.3519 48.4604 46.9144 48.1279 46.2465L41.5479 32.9494L38.6633 37.0503C38.2812 37.5928 37.6571 37.9165 36.9921 37.9165H31.3017Z" fill="#017113"/>
</svg>

<svg xmlns="http://www.w3.org/2000/svg" width="70" height="70" fill="none" xmlns:v="https://vecta.io/nano"><path fill-rule="evenodd" d="M63.659 26.25h-6.084c.499-1.421.764-2.791.764-4.113 0-6.784-5.302-11.013-11.737-10.421-7.82.72-13.178 10.821-14.519 13.078-1.537-2.517-6.594-12.361-14.528-13.107-6.154-.58-11.722 3.445-11.722 10.448 0 9.068 12.679 20.662 26.253 33.877l9.695-9.459 2.829 5.416-12.524 12.195C14.108 46.556 0 34.408 0 22.155 0 12.547 7.181 6.037 16.549 5.833c6.309-.026 12.031 2.791 15.537 8.61 3.433-5.705 9.176-8.581 15.321-8.581 8.937 0 16.759 6.169 16.759 16.319 0 1.353-.175 2.707-.508 4.069zM31.302 37.917a5.83 5.83 0 0 1-5.052 2.917c-3.22 0-5.833-2.613-5.833-5.833s2.613-5.833 5.833-5.833a5.83 5.83 0 0 1 5.052 2.917h3.564l5.483-7.904c.408-.589 1.097-.919 1.814-.872a2.04 2.04 0 0 1 1.68 1.108l6.621 12.941 2.371-4.229a2.04 2.04 0 0 1 1.782-1.044H70v5.833H56.837l-5.13 8.482c-.385.639-1.088 1.015-1.835.983s-1.412-.467-1.744-1.135l-6.58-13.297-2.885 4.101c-.382.542-1.006.866-1.671.866h-5.69z" fill="#017113"/></svg>
